img/point_source.svg

<svg version="1.1" xmlns="http://www.w3.org/2000/svg" xmlns:xlink="http://www.w3.org/1999/xlink" width="101" height="100"><defs/><g><rect fill="black" stroke="none" x="0" y="0" width="101" height="100"/><g/><rect fill="rgb(0,255,0)" stroke="none" x="48.20915327673717" y="44.57002506472403" width="5" height="5"/><path fill="none" stroke="rgb(255,255,128)" paint-order="fill stroke markers" d=" M 50.20915327673717 46.57002506472403 L 50.20915327673717 2378.675219585998" stroke-miterlimit="10" stroke-dasharray=""/><path fill="none" stroke="rgb(255,255,128)" paint-order="fill stroke markers" d=" M 50.20915327673717 46.57002506472403 L 653.8023928013612 2299.210662075714" stroke-miterlimit="10" stroke-dasharray=""/><path fill="none" stroke="rgb(255,255,128)" paint-order="fill stroke markers" d=" M 50.20915327673717 46.57002506472403 L 1216.2617505373719 2066.2323678177986" stroke-miterlimit="10" stroke-dasharray=""/><path fill="none" stroke="rgb(255,255,128)" paint-order="fill stroke markers" d=" M 50.20915327673717 46.57002506472403 L 1699.2565507631023 1695.6174225510892" stroke-miterlimit="10" stroke-dasharray=""/><path fill="none" stroke="rgb(255,255,128)" paint-order="fill stroke markers" d=" M 50.20915327673717 46.57002506472403 L 2069.8714960298116 1212.6226223253584" stroke-miterlimit="10" stroke-dasharray=""/><path fill="none" stroke="rgb(255,255,128)" paint-order="fill stroke markers" d=" M 50.20915327673717 46.57002506472403 L 2302.849790287727 650.163264589348" stroke-miterlimit="10" stroke-dasharray=""/><path fill="none" stroke="rgb(255,255,128)" paint-order="fill stroke markers" d=" M 50.20915327673717 46.57002506472403 L 2382.314347798011 46.57002506472417" stroke-miterlimit="10" stroke-dasharray=""/><path fill="none" stroke="rgb(255,255,128)" paint-order="fill stroke markers" d=" M 50.20915327673717 46.57002506472403 L 2302.849790287727 -557.0232144599001" stroke-miterlimit="10" stroke-dasharray=""/><path fill="none" stroke="rgb(255,255,128)" paint-order="fill stroke markers" d=" M 50.20915327673717 46.57002506472403 L 2069.871496029811 -1119.4825721959107" stroke-miterlimit="10" stroke-dasharray=""/><path fill="none" stroke="rgb(255,255,128)" paint-order="fill stroke markers" d=" M 50.20915327673717 46.57002506472403 L 1699.2565507631025 -1602.4773724216411" stroke-miterlimit="10" stroke-dasharray=""/><path fill="none" stroke="rgb(255,255,128)" paint-order="fill stroke markers" d=" M 50.20915327673717 46.57002506472403 L 1216.2617505373712 -1973.092317688351" stroke-miterlimit="10" stroke-dasharray=""/><path fill="none" stroke="rgb(255,255,128)" paint-order="fill stroke markers" d=" M 50.20915327673717 46.57002506472403 L 653.8023928013613 -2206.0706119462657" stroke-miterlimit="10" stroke-dasharray=""/><path fill="none" stroke="rgb(255,255,128)" paint-order="fill stroke markers" d=" M 50.20915327673717 46.57002506472403 L 50.20915327673745 -2285.5351694565497" stroke-miterlimit="10" stroke-dasharray=""/><path fill="none" stroke="rgb(255,255,128)" paint-order="fill stroke markers" d=" M 50.20915327673717 46.57002506472403 L -553.3840862478869 -2206.0706119462657" stroke-miterlimit="10" stroke-dasharray=""/><path fill="none" stroke="rgb(255,255,128)" paint-order="fill stroke markers" d=" M 50.20915327673717 46.57002506472403 L -1115.8434439838968 -1973.092317688351" stroke-miterlimit="10" stroke-dasharray=""/><path fill="none" stroke="rgb(255,255,128)" paint-order="fill stroke markers" d=" M 50.20915327673717 46.57002506472403 L -1598.838244209628 -1602.4773724216411" stroke-miterlimit="10" stroke-dasharray=""/><path fill="none" stroke="rgb(255,255,128)" paint-order="fill stroke markers" d=" M 50.20915327673717 46.57002506472403 L -1969.453189476337 -1119.4825721959107" stroke-miterlimit="10" stroke-dasharray=""/><path fill="none" stroke="rgb(255,255,128)" paint-order="fill stroke markers" d=" M 50.20915327673717 46.57002506472403 L -2202.4314837342527 -557.0232144599001" stroke-miterlimit="10" stroke-dasharray=""/><path fill="none" stroke="rgb(255,255,128)" paint-order="fill stroke markers" d=" M 50.20915327673717 46.57002506472403 L -2281.8960412445367 46.57002506472417" stroke-miterlimit="10" stroke-dasharray=""/><path fill="none" stroke="rgb(255,255,128)" paint-order="fill stroke markers" d=" M 50.20915327673717 46.57002506472403 L -2202.4314837342527 650.163264589348" stroke-miterlimit="10" stroke-dasharray=""/><path fill="none" stroke="rgb(255,255,128)" paint-order="fill stroke markers" d=" M 50.20915327673717 46.57002506472403 L -1969.4531894763372 1212.6226223253584" stroke-miterlimit="10" stroke-dasharray=""/><path fill="none" stroke="rgb(255,255,128)" paint-order="fill stroke markers" d=" M 50.20915327673717 46.57002506472403 L -1598.8382442096279 1695.6174225510892" stroke-miterlimit="10" stroke-dasharray=""/><path fill="none" stroke="rgb(255,255,128)" paint-order="fill stroke markers" d=" M 50.20915327673717 46.57002506472403 L -1115.8434439838975 2066.2323678177986" stroke-miterlimit="10" stroke-dasharray=""/><path fill="none" stroke="rgb(255,255,128)" paint-order="fill stroke markers" d=" M 50.20915327673717 46.57002506472403 L -553.3840862478868 2299.210662075714" stroke-miterlimit="10" stroke-dasharray=""/><rect fill="rgb(0,255,0)" stroke="none" x="48.20915327673717" y="44.57002506472403" width="5" height="5"/></g></svg>

<svg xmlns="http://www.w3.org/2000/svg" width="101" height="100"><path d="M0 0h101v100H0z"/><path fill="#0F0" d="M48.209 44.57h5v5h-5z"/><path fill="none" stroke="#FFFF80" paint-order="fill stroke markers" d="M50.21 46.57v2332.105M50.21 46.57l603.592 2252.64M50.21 46.57l1166.052 2019.662M50.21 46.57l1649.047 1649.047M50.21 46.57 2069.87 1212.623M50.21 46.57l2252.64 603.593M50.21 46.57h2332.104M50.21 46.57l2252.64-603.593M50.21 46.57 2069.87-1119.483M50.21 46.57l1649.047-1649.047M50.21 46.57l1166.052-2019.662M50.21 46.57l603.592-2252.64M50.21 46.57v-2332.105M50.21 46.57l-603.594-2252.64M50.21 46.57l-1166.053-2019.662M50.21 46.57l-1649.048-1649.047M50.21 46.57l-2019.663-1166.053M50.21 46.57l-2252.641-603.593M50.21 46.57h-2332.106M50.21 46.57l-2252.641 603.593M50.21 46.57l-2019.663 1166.053M50.21 46.57l-1649.048 1649.047M50.21 46.57l-1166.053 2019.662M50.21 46.57l-603.594 2252.64" stroke-miterlimit="10"/><path fill="#0F0" d="M48.209 44.57h5v5h-5z"/></svg>
